!!!OTL: Hans Wolf und die Gans (48a), S. 153
!!!id: T0181
**kern
*clefG2
*k[]
*G:
{8d
=1
8g
8g
8g
4b
16g
16g
=2
16cc
16cc
8cc
8cc
4cc}
=3
{8cc
=4
4dd
8ee
8ee
8dd
8dd
=5
8a
8a
16a
16a
4dd}
=6
{8dd
=7
8dd
8dd
8dd
8dd
8dd
8ee
=8
4.ee
4dd}
=9
{8ee
=10
4cc
8cc
8cc
8b
8a
=11
4a
8g
4g}
=12
{8b
=13
4dd
8dd
8dd
8cc
8a
=14
4.a
8g}
8r
==
*-
!!!minrhy: 16
!!!meters: 6/8 ]  ZZ[5
!!!cut: Hans Wolf und die Gans (48a), S. 153
!!!reg: Luxemburg
!!!trd: Singendes Volk, Esch-Alzette 1937 posth.
!!!rhy1: X_  X_X_X_X__XX  XXX_X_X__
!!!rhy2: X_  X__X_X_X_X_  X_X_XXX__
!!!key: T0181  16  G 6/8 ]  ZZ[5
!!!mod: SECHSTONSKALA DUR ?]  AMBITUS[9
!!!kad: 45511
!!!akz: 1344_5625_5565_4421_5521_
!!!fot: 'a__b__c__d__e__
!!!for: 'a__b__c__d__e__
!!!fok: '/__~a_-__\__^d_
!! PHRAS[AUFTAKTIG]
!!!fkt: Liebeslieder
!!!bem1: Hesperingen, fff Besch-Oberweis (* 1860), 14.5.1934
!!!bem2: Lied von der Mutter erlernt
!! THILL, Mathias:
!! PR[57] 2K[0] 2G[10] 3K[2] 3G[2] 4A[2] 4Ü[0] 5A[2] 6K[0] 6G[0]
!! 7K[0] 7G[0] 8A[0] MEHR[0] SI[18] ABS[49] SR[10] SP[8]
!! ST[10] 2k[4] 2g[18] 3k[0] 3g[2] 4d[0] 4ü[0] 5d[0] 6k[0] 6g[0]
!! 7k[0] 7g[0] 8d[0] mehr[0] si[24] dm[-6] sr[22] sp[2]
!! 1F[4] 2F[76] 3F[18] 4F[0] LF[0] 2P[0] 3P[2] 4P[0] TRI[0] DF[4] AB[50]
!! TF[0] U3K[0] U3[0] U4[0] U4Ü[0] U5[2] U6K[0] U6[0] U7K[0] U7[0]
!! N1[10] N2K[0] N2[2] N3K[0] N3[10] N4[12] N4Ü[0] N5[54] N6K[0] N6[10]
!!!n7k: 0] N7[0] O1[0] O2K[0] O2[0] O3K[0] O3[0] HÖ[0
